source/svgs/bowtie/uE926-chart-pivot.svg

<svg xmlns="http://www.w3.org/2000/svg" viewBox="0 0 448 448" enable-background="new 0 0 448 448"><path d="M0 0v448h448v-448h-448zm416 416h-384v-384h384v384zm-288-288h-64v-64h64v64zm256 0h-224v-64h224v64zm-256 256h-64v-224h64v224zm208-222.627l59.313 59.314-22.627 22.627-20.686-20.687v129.373h-129.373l20.686 20.687-22.627 22.627-59.313-59.314 59.314-59.313 22.627 22.627-20.687 20.686h97.373v-97.373l-20.687 20.686-22.627-22.627 59.314-59.313z"/></svg>

<svg xmlns="http://www.w3.org/2000/svg" viewBox="0 0 448 448"><path d="M0 0v448h448V0H0zm416 416H32V32h384v384zM128 128H64V64h64v64zm256 0H160V64h224v64zM128 384H64V160h64v224zm208-222.627l59.313 59.314-22.627 22.627L352 222.627V352H222.627l20.686 20.687-22.627 22.627L161.373 336l59.314-59.313 22.627 22.627L222.627 320H320v-97.373l-20.687 20.686-22.627-22.627L336 161.373z"/></svg>
